X:9
T:Sanctus (Messe festive)
C:D. Julien
M:C
K:A
C4E4|F4E2F2|A4A2(3AFA|B6||zcc2AB cc BA|F2GA BAF2|E4C2E2|
F4EFA2A2|B6||zc|c2AB cc BA|[M:2/4]F2GA|[M:C]G4E2F2|A2FAB2B2|A6||
